X:1
T:[ID 7-7]
T:[ID 7-7]
T:Bezeichnung standardisiert: Menuett Menuet 4. In dieser Quelle auch als: Menuetto
T:Urheber unbekannt Erstbeleg: 1776-1791 (Datum in der schriftlichen Quelle) Datum in der hier transkribierten schriftlichen Quelle: 1792
C:Urheber unbekannt
C:Erstbeleg: 1776-1791 (Datum in der schriftlichen Quelle)
C:Datum in der hier transkribierten schriftlichen Quelle: 1792
L:1/8
M:3/4
K:G
V:1 treble 
V:1
 g4 (3gab | d2 c2 B2 | A4 (3cde | d2 F2 G2 | GBdabg | a2 ^c2 d2 | egfga^c | d6 :: d4 (3de_f | %9
 edcB c2 | e4 (3efg | fed^c d2 | c2 B2 A2 | G2 F2 G2 | AcBcdF | G6 :| %16

